greatest-node-application-ever/public/images/icons/store.svg

<svg enable-background="new 0 0 512 512" viewBox="0 0 512 512" xmlns="http://www.w3.org/2000/svg"><path d="m469 493.6v-305.6c35.5-10.9 43.7-45 37.7-68.9l-31.4-117.1h-438.6l-31.5 117.3c-5.9 23.7 2.7 57.8 37.8 68.7v305.6h-41v16.4h508v-16.4zm-16.4-319.5c-22.6 0-41-18.4-41-41v-32.8h73.1l6.2 22.9c5.8 20.8-7 50.9-38.3 50.9zm-335.9-73.8h81.9v32.8c0 22.6-18.4 41-41 41s-41-18.4-41-41v-32.8zm98.3 0h82v32.8c0 22.6-18.4 41-41 41s-41-18.4-41-41zm98.4 0h81.9v32.8c0 22.6-18.4 41-41 41s-41-18.4-41-41v-32.8zm-264.1-81.9h413.5l17.6 65.5h-448.7zm-28.2 105 6.2-23.1h73.1v32.8c0 22.6-18.4 41-41 41-31.4 0-44.1-31-38.3-50.7zm275.9 370.2v-213h114.7v213zm155.6 0h-24.6v-229.4h-147.4v229.4h-221.2v-303.1c20.8 0 39.1-11.2 49.2-27.8 10 16.7 28.3 27.8 49.2 27.8 20.8 0 39.1-11.2 49.2-27.8 10 16.7 28.3 27.8 49.2 27.8 20.8 0 39.1-11.2 49.2-27.8 10 16.7 28.3 27.8 49.2 27.8 20.8 0 39.1-11.2 49.2-27.8 10 16.7 28.3 27.8 49.2 27.8v303.1z"/><path d="m83.9 469h163.9v-163.8h-163.9zm16.4-73.7h57.4v57.4h-57.4zm73.8 57.3v-57.4h57.4v57.4zm57.3-73.7h-57.4v-57.4h57.4zm-73.7-57.4v57.4h-57.4v-57.4z"/><path d="m165.9 231.4h16.4v16.4h-16.4z"/><path d="m133.1 231.4h16.4v16.4h-16.4z"/><path d="m198.6 231.4h16.4v16.4h-16.4z"/></svg>

<svg xmlns="http://www.w3.org/2000/svg" xmlns:xlink="http://www.w3.org/1999/xlink" version="1.1" x="0px" y="0px" viewBox="0 0 512 512" enable-background="new 0 0 512 512" xml:space="preserve"><g><path d="M469,493.6V188c35.5-10.9,43.7-45,37.7-68.9L475.3,2H36.7L5.2,119.3C-0.7,143,7.9,177.1,43,188v305.6H2V510h508v-16.4H469z    M452.6,174.1c-22.6,0-41-18.4-41-41v-32.8h73.1l6.2,22.9C496.7,144,483.9,174.1,452.6,174.1z M116.7,100.3h81.9v32.8   c0,22.6-18.4,41-41,41c-22.6,0-41-18.4-41-41V100.3z M215,100.3H297v32.8c0,22.6-18.4,41-41,41c-22.6,0-41-18.4-41-41V100.3z    M313.4,100.3h81.9v32.8c0,22.6-18.4,41-41,41c-22.6,0-41-18.4-41-41V100.3z M49.3,18.4h413.5l17.6,65.5H31.7L49.3,18.4z    M21.1,123.4l6.2-23.1h73.1v32.8c0,22.6-18.4,41-41,41C28,174.1,15.3,143.1,21.1,123.4z M297,493.6v-213h114.7v213H297z    M452.6,493.6h-24.6V264.2H280.6v229.4H59.4V190.5c20.8,0,39.1-11.2,49.2-27.8c10,16.7,28.3,27.8,49.2,27.8   c20.8,0,39.1-11.2,49.2-27.8c10,16.7,28.3,27.8,49.2,27.8c20.8,0,39.1-11.2,49.2-27.8c10,16.7,28.3,27.8,49.2,27.8   c20.8,0,39.1-11.2,49.2-27.8c10,16.7,28.3,27.8,49.2,27.8V493.6z"></path><path d="M83.9,469h163.9V305.2H83.9V469z M100.3,395.3h57.4v57.4h-57.4V395.3z M174.1,452.6v-57.4h57.4v57.4H174.1z M231.4,378.9   h-57.4v-57.4h57.4V378.9z M157.7,321.5v57.4h-57.4v-57.4H157.7z"></path><rect x="165.9" y="231.4" width="16.4" height="16.4"></rect><rect x="133.1" y="231.4" width="16.4" height="16.4"></rect><rect x="198.6" y="231.4" width="16.4" height="16.4"></rect></g></svg>
